X: 34337
T: Return To Burton Road
R: jig
M: 6/8
K: Dmajor
EAB =c2c|Adc d2e|fag efd|ABG FED|
d2d afd|(3Bcd f g~g2|f2d ecA|GEA D3|
EAB =cBc|Adc d2e|(3fga g efd|ABG FED|
dcd afd|Bef g~g2|f~f2 ecA|GEA D2A||
dBd faf|gec Ace|d2 d AFA|=cBc EFA|
d2d faf|gec Ace|dcd AFA|GEA D3|
dcd (3fga f|gec Ace|dcd AFA|=cBc E2A|
dcd (3fga f|gec Ace|dcd AFA|GEA D2d|
dBd f~a2|~g3 a2A|ded f~a2|gef gfe|
d2f ecA|~G3 AFG|Ace dcA|GEA D3|
dcd a^ga|gfg a^ga|dcd a^ga|gef gfe|
def ecA|GAB AFG|Ace Bce|AGE D3||

